!!!COA:	Josquin des Prez
!!!CDT:	~1450-1521/08/27
!!!OPR:	Missa Ad fugam
!!!ONM:	4
!!!OTL:	Sanctus (version II)
!!!AGN:	Mass; Sanctus
!!!SCT:	NJE 12.1
!!!SCA:	New Josquin Edition 12.1
!!!voices:	4
!!!voices-OPR:	4
**kern	**kern	**kern	**kern
*staff4	*staff3	*staff2	*staff1
*Ivox	*Ivox	*Ivox	*Ivox
*I"Bassus	*I"Tenor	*I"Altus	*I"Superius
*I'B	*I'T	*I'A	*I'S
*>[A,B,C,D,E]	*>[A,B,C,D,E]	*>[A,B,C,D,E]	*>[A,B,C,D,E]
*>A	*>A	*>A	*>A
*clefF4	*clefGv2	*clefGv2	*clefG2
*k[b-]	*k[b-]	*k[b-]	*k[b-]
*M3/1	*M3/1	*M3/1	*M3/1
*met(O)	*met(O)	*met(O)	*met(O)
=1-	=1-	=1-	=1-
!	!	!	!LO:TX:X=-40:Z=8:t=[Canon at the lower fifth]
0G	0.r	1.G	0g
.	.	2A/	.
1E	.	2.B-\	1g
.	.	4c\	.
=2	=2	=2	=2
1.F	0c	0A	1.a
2G\	.	.	4g/
.	.	.	4f/
1A	1c	2r	1e
.	.	2A/	.
=3	=3	=3	=3
2r	1.d	2.B-\	1d
1D	.	.	.
.	.	4A/	.
.	.	2F/	1r
1G	4c\	2G/	.
.	4B-\	.	.
.	1A	1D	1a
2F#i\	.	.	.
=4	=4	=4	=4
1G	1G	2r	1b-i
.	.	1d	.
2D\	1r	.	2a/
1F	.	2c\	1a
.	1d	2A/	.
2D\	.	2B-\	2f/
=5	=5	=5	=5
1C	1e-i	3c\V	1g
.	.	3G/	.
.	.	3A/Z	.
0BB-	2d\	0B-	1r
.	1d	.	.
.	.	.	2f/
.	2B-\	.	2g/
=6	=6	=6	=6
2.F\	1c	1A	2.a/
4G\	.	.	4b-\
2A\	1r	1r	2cc\
2.B-\	.	.	1dd
.	2B-\	1r	.
4G\	.	.	.
2A\	2c\	.	2cc\
=7	=7	=7	=7
2G\	2.d\	1G	2b-\
1B-	.	.	2.dd\
.	4e\	.	.
.	2f\	0d	.
.	.	.	4cc\
2G\	1g	.	2b-\
1D	.	.	1a
.	2f\	.	.
=8	=8	=8	=8
1E	2e\	2G/	1g
.	2.g\	2.e\	.
2C/	.	.	1r
.	4f\	4d\	.
2E\	2e\	1c	.
2F\	1d	.	1r
2G\	.	2Bni\	.
=9	=9	=9	=9
2.C/	1c	2c\	0.r
.	.	2.g\	.
4D\	.	.	.
2E\	1r	.	.
.	.	4e\	.
2.F\	.	2.a\	.
.	1r	.	.
4G\	.	4g\	.
2A\	.	4f\	.
.	.	4e\	.
=10	=10	=10	=10
2B-\	0.r	2.d\	0.r
2.d\	.	.	.
.	.	4e\	.
.	.	2f\	.
4c\	.	.	.
2B-\	.	1g	.
1A	.	.	.
.	.	2f\	.
=11	=11	=11	=11
1r	0.r	4e\	2.g/
.	.	4c\	.
.	.	1g	.
.	.	.	4a/
1r	.	.	2b-\
.	.	2e\	1cc
1G	.	1d	.
.	.	.	2b-\
=12	=12	=12	=12
1.A	2.c\	0c	2a/
.	.	.	2.cc\
.	4d\	.	.
.	2e\	.	.
.	.	.	4b-\
2F\	1f	.	2a/
1c	.	2r	1g
.	2e\	2c\	.
=13	=13	=13	=13
2r	2d\	2.d\	1f
1F	2.f\	.	.
.	.	4c\	.
.	.	2A/	1r
.	4e\	.	.
1B-	2d\	2B-\	.
.	1c	1F	1cc
2A\	.	.	.
=14	=14	=14	=14
1B-	1B-	2r	1dd
.	.	1d	.
2G\	1r	.	2b-\
1A	.	2c\	1cc
.	1f	1A	.
2D\	.	.	2a/
=15	=15	=15	=15
2r	1g	1G	1b-
2G\	.	.	.
1A	2e\	1r	1cc
.	1f	.	.
1B-	.	1d	1dd
.	2d\	.	.
=16	=16	=16	=16
1c	1e	2c\	2r
.	.	2e\	2g/
1r	1f	1d	1a
1G	1g	2r	1b-
.	.	2d\	.
=17	=17	=17	=17
1A	2r	2c\	1cc
.	2c\	1A	.
1D	1d	.	2r
.	.	2F/	2f/
2r	1e	1c	1g
2C/	.	.	.
=18	=18	=18	=18
1F	1f	2r	1a
.	.	2A/	.
1G	2r	2B-\	1d
.	2B-\	2d\	.
1A	1c	2c\	2r
.	.	2A/	2e/
=19	=19	=19	=19
2r	1d	2r	1f
2D\	.	2d\	.
1E	1G	2B-\	1g
.	.	2c\	.
1F	2r	1A	1a
.	2A/	.	.
=20	=20	=20	=20
1G	1B-	0.r	2r
.	.	.	2d/
1r	1c	.	1e
2r	1d	.	1f
2D\	.	.	.
=21	=21	=21	=21
1E	2r	0.r	2g/
.	2G/	.	2.b-i\
1F	1A	.	.
.	.	.	4a/
.	.	.	1a
1G	1B-	.	.
.	.	.	2g/
=22	=22	=22	=22
1r	2c\	2A/	2a/
.	2.e-i\	1c	2.g/
1r	.	.	.
.	4d\	.	4f/
.	1d	2d\	2d/
2r	.	1A	1e
2A\	2c\	.	.
=23	=23	=23	=23
2D\	2d\	2r	2d/
2.F\	2.c\	2.A/	2.a/
4G\	4B-\	4B-\	4g/
2E\	2G/	2c\	1g
1D	1A	1d	.
.	.	.	2f#i/
=24	=24	=24	=24
0.Gl	0.Gl	0.dl	0.gl
!!LO:LB:i:g=z
=25||	=25||	=25||	=25||
*>B	*>B	*>B	*>B
*clefF4	*clefGv2	*clefGv2	*clefG2
*k[b-]	*k[b-]	*k[b-]	*k[b-]
*M3/1	*M3/1	*M3/1	*M3/1
*met(O)	*met(O)	*met(O)	*met(O)
!!section: Pleni
!!!OMD: Pleni
1G	0.r	1g	0.r
2A\	.	2f\	.
2G\	.	1g	.
2B-\	.	.	.
2c\	.	2e\	.
=26	=26	=26	=26
1d	0.r	2f\	0.r
.	.	1d	.
2r	.	.	.
2G\	.	2.g\	.
2B-\	.	.	.
.	.	4f\	.
2c\	.	4e\	.
.	.	4d\	.
=27	=27	=27	=27
2.d\	0.r	2.f\	0.r
4c\	.	4e\	.
2A\	.	2c\	.
1B-	.	1d	.
4A\	.	4c\	.
4G\	.	4B-\	.
=28	=28	=28	=28
1F	0.r	2.A/	0.r
.	.	4B-\	.
2r	.	2c\	.
2D\	.	2d\	.
2E\	.	2G/	.
2F\	.	[2d\	.
=29	=29	=29	=29
2.G\	0.r	4d\]	0.r
.	.	4c\	.
.	.	2d\	.
4F\	.	.	.
2G\	.	2e\	.
2A\	.	2f\	.
2B-\	.	2.g\	.
[2c\	.	.	.
.	.	4f\	.
=30	=30	=30	=30
4c\]	0.r	2a\	0.r
4B-\	.	.	.
2c\	.	1a	.
2d\	.	.	.
1d	.	2f\	.
.	.	1e	.
2c\	.	.	.
=31	=31	=31	=31
2d\	0.r	1d	0.r
2G\	.	.	.
2d\	.	2r	.
2B-\	.	2d\	.
1A	.	2e\	.
.	.	2f\	.
=32	=32	=32	=32
2G\	0.r	2.g\	0.r
2.B-\	.	.	.
.	.	4f\	.
.	.	2d\	.
4A\	.	.	.
1A	.	2c\	.
.	.	1B-	.
2G\	.	.	.
=33	=33	=33	=33
2A\	0.r	2A/	0.r
1B-	.	1d	.
2A\	.	2c\	.
2G\	.	2B-\	.
4F\	.	4A/	.
4E\	.	4G/	.
=34	=34	=34	=34
2D\	0.r	1F	0.r
1d	.	.	.
.	.	2r	.
2c\	.	2F/	.
2B-\	.	2G/	.
4A\	.	2B-\	.
4G\	.	.	.
=35	=35	=35	=35
1F	0.r	2A/	0.r
.	.	1d	.
1B-	.	.	.
.	.	2G/	.
2c\	.	2A/	.
[2d\	.	2B-\	.
=36	=36	=36	=36
2d\]	0.r	1G	0.r
2G\	.	.	.
2A\	.	2F/	.
2B-\	.	2.G/	.
1G	.	.	.
.	.	4A/	.
.	.	4B-\	.
.	.	4c\	.
=37	=37	=37	=37
2F\	0.r	2A/	0.r
2.G\	.	2G/	.
.	.	1d	.
4A\	.	.	.
4B-\	.	.	.
4c\	.	.	.
2A\	.	2c\	.
2G\	.	[2d\	.
=38	=38	=38	=38
1d	0.r	4d\]	0.r
.	.	4e\	.
.	.	4f\	.
.	.	4g\	.
2c\	.	2e\	.
2d\	.	1d	.
2G\	.	.	.
[2d\	.	2G/	.
=39	=39	=39	=39
2d\]	0.r	2.d\	0.r
2G\	.	.	.
.	.	4e\	.
2.d\	.	4f\	.
.	.	4g\	.
.	.	2.a\	.
4c\	.	.	.
2d\	.	.	.
.	.	4f\	.
2G\	.	4g\	.
.	.	4a\	.
=40	=40	=40	=40
2.d\	0.r	2b-\	0.r
.	.	2.a\	.
4c\	.	.	.
2d\	.	.	.
.	.	4g\	.
2B-\	.	1g	.
1A	.	.	.
.	.	2f#i\	.
=41	=41	=41	=41
0.Gl	0.r	0.gl	0.r
!!LO:LB:i:g=z
=42||	=42||	=42||	=42||
*>C	*>C	*>C	*>C
*clefF4	*clefGv2	*clefGv2	*clefG2
*k[b-]	*k[b-]	*k[b-]	*k[b-]
*M3/1	*M3/1	*M3/1	*M3/1
*met(O|)	*met(O|)	*met(O|)	*met(O|)
!!section: Osanna
!!!OMD: Osanna
1.B-	0.r	1r	2.d/
.	.	.	4e/
.	.	1r	2f/
2G\	.	.	1g
1A	.	1c	.
.	.	.	2f#i/
=43	=43	=43	=43
1.G	2.G/	2d\	1.g
.	.	1B-	.
.	4A/	.	.
.	2B-\	.	.
2F\	1c	4A/	1a
.	.	4G/	.
1D	.	1F	.
.	2Bni\	.	4g/
.	.	.	4f/
=44	=44	=44	=44
1C	1.c	1G	1e
2r	.	2A/	2r
1D	1d	2.B-\	2d/
.	.	.	2f/
.	.	4A/	.
2E\	4c\	2G/	2g/
.	4B-\	.	.
=45	=45	=45	=45
1.F	1A	2F/	2.a/
.	.	2c\	.
.	.	.	4b-i\
.	2r	2A/	2cc\
2G\	2G/	1B-	2b-i\
1E-i	2B-\	.	1g
.	2c\	2G/	.
=46	=46	=46	=46
2D\	2.d\	2A/	1f
2BB-/	.	2.d\	.
.	4e-i\	.	.
2D\	2f\	.	1r
.	.	4c\	.
2E-i\	2e-i\	1B-	.
1F	1c	.	1cc
.	.	2A/	.
=47	=47	=47	=47
2BB-/	1B-	1B-	1dd
1B-	.	.	.
.	1r	1r	2b-\
2A\	.	.	1cc
2F\	1f	1c	.
2A\	.	.	2a/
=48	=48	=48	=48
1G	1g	1d	2b-\
.	.	.	1g
1r	2e\	1r	.
.	1f	.	1a
1r	.	1d	.
.	2d\	.	2f/
=49	=49	=49	=49
2r	2e\	2.c\	2g/
1A	1c	.	1e
.	.	4d\	.
.	.	2e\	.
1D	1d	2f\	2d/
.	.	1d	2f/
2G\	2B-\	.	2g/
=50	=50	=50	=50
2.F\	2c\	2r	1a
.	1A	2c\	.
4E\	.	.	.
2F\	.	2A/	1r
2G\	2G/	2B-\	.
1E	2B-\	1G	1g
.	2c\	.	.
=51	=51	=51	=51
2.D\	1d	0A	2f/
.	.	.	2.a/
4E\	.	.	.
2F\	1r	.	.
.	.	.	4g/
2D\	.	.	2f/
1A	1c	2r	1e
.	.	2c\	.
=52	=52	=52	=52
1B-	2B-\	2d\	2d/
.	2.d\	2G/	2.b-i\
1G	.	2.B-\	.
.	4c\	.	4a/
.	2B-\	.	1g
.	.	4c\	.
1D	1A	1d	.
.	.	.	2f#i/
=53	=53	=53	=53
0.Gl	0.Gl	0.dl	0.gl
!!LO:LB:i:g=z
!!LO:TX:rj:i:t=fine
=54||	=54||	=54||	=54||
*>D	*>D	*>D	*>D
*clefF4	*clefGv2	*clefGv2	*clefG2
*k[b-]	*k[b-]	*k[b-]	*k[b-]
*M2/1	*M2/1	*M2/1	*M2/1
*met(C|)	*met(C|)	*met(C|)	*met(C|)
!!section: Benedictus
!!!OMD: Benedictus
!	!	!	!LO:TX:X=-40:Z=8:t=[Canon at the lower fifth]
0r	0r	0r	0dd
=55	=55	=55	=55
0r	0r	0r	1cc
.	.	.	[1dd
=56	=56	=56	=56
0r	0r	0r	1dd]
.	.	.	1b-
=57	=57	=57	=57
0r	0g	0r	1b-
.	.	.	1g
=58	=58	=58	=58
0r	1f	0r	1a
.	[1g	.	1b-
=59	=59	=59	=59
0r	1g]	0r	0g
.	1e	.	.
=60	=60	=60	=60
0r	1e	0r	1.cc
.	1c	.	.
.	.	.	2b-\
=61	=61	=61	=61
0r	1d	0r	1a
.	1e	.	1g
=62	=62	=62	=62
0r	0c	0r	1.cc
.	.	.	2b-\
=63	=63	=63	=63
0r	1.f	0r	1.a
.	2e\	.	2g/
=64	=64	=64	=64
0r	1d	0r	2f/
.	.	.	4e/
.	.	.	4d/
.	1c	.	1e
=65	=65	=65	=65
0r	1.f	0r	1.d
.	2e\	.	2e/
=66	=66	=66	=66
0r	1.d	0r	2f/
.	.	.	4g/
.	.	.	4a/
.	.	.	2b-\
.	2c\	.	[2a/
=67	=67	=67	=67
0r	2B-\	0r	4a/]
.	.	.	4g/
.	4A/	.	1g
.	4G/	.	.
.	1A	.	.
.	.	.	2f#i/
=68	=68	=68	=68
0r	0Gl	0r	0gl
!!LO:LB:i:g=z
=69||	=69||	=69||	=69||
*>E	*>E	*>E	*>E
*clefF4	*clefGv2	*clefGv2	*clefG2
*k[b-]	*k[b-]	*k[b-]	*k[b-]
*M2/1	*M2/1	*M2/1	*M2/1
*met(C|)	*met(C|)	*met(C|)	*met(C|)
!!section: Qui venit
!!!OMD: Qui venit
1G	0r	0r	0r
1c	.	.	.
=70	=70	=70	=70
1B-	0r	0r	0r
1G	.	.	.
=71	=71	=71	=71
2r	0r	1d	0r
1G	.	.	.
.	.	1g	.
4F\	.	.	.
4E\	.	.	.
=72	=72	=72	=72
2.D\	0r	1f	0r
4E\	.	.	.
2F\	.	1d	.
2G\	.	.	.
=73	=73	=73	=73
2A\	0r	2c\	0r
1B-	.	1d	.
4A\	.	4c\	.
4G\	.	4B-\	.
=74	=74	=74	=74
2.F\	0r	2.A/	0r
4G\	.	4B-\	.
2A\	.	2c\	.
2B-\	.	2d\	.
=75	=75	=75	=75
2c\	0r	2e\	0r
1d	.	2.f\	.
.	.	4g\	.
4c\	.	[2a\	.
4B-\	.	.	.
=76	=76	=76	=76
2A\	0r	4a\]	0r
.	.	4g\	.
2B-\	.	2f\	.
2c\	.	2e\	.
[2d\	.	2d\	.
=77	=77	=77	=77
2d\]	0r	1e	0r
2c#i\	.	.	.
1d	.	2r	.
.	.	[2d\	.
=78	=78	=78	=78
1G	0r	2d\]	0r
.	.	2B-\	.
1A	.	2c\	.
.	.	[2A/	.
=79	=79	=79	=79
1F	0r	2A/]	0r
.	.	2.d\	.
1B-	.	.	.
.	.	4e\	.
.	.	[2f\	.
=80	=80	=80	=80
1A	0r	4f\]	0r
.	.	4e\	.
.	.	2c\	.
1G	.	2B-\	.
.	.	[2d\	.
=81	=81	=81	=81
1F	0r	4d\]	0r
.	.	4c\	.
.	.	2A/	.
[1B-	.	2G/	.
.	.	[2d\	.
=82	=82	=82	=82
2B-\]	0r	4d\]	0r
.	.	4e\	.
2A\	.	2.f\	.
1B-	.	.	.
.	.	4d\	.
.	.	[2g\	.
=83	=83	=83	=83
1c	0r	4g\]	0r
.	.	4e\	.
.	.	2.a\	.
2A\	.	.	.
.	.	4g\	.
[2d\	.	4f\	.
.	.	4e\	.
=84	=84	=84	=84
4d\]	0r	2f\	0r
4c\	.	.	.
4B-\	.	1d	.
4A\	.	.	.
1G	.	.	.
.	.	[2g\	.
=85	=85	=85	=85
1A	0r	2g\]	0r
.	.	2f#i\	.
1Gl	.	1gl	.
!!LO:TX:i:Y=40:rj:t=Osanna ut supra
=||	=||	=||	=||
*-	*-	*-	*-
!!!RDF**kern: l=long note in original notation
!!!RDF**kern: i=editorial accidental
!!!RDF**kern: V=start of tuplet marker
!!!RDF**kern: Z=end of tuplet marker
!!!ENC:	Jesse Rodin; Victoria Chang 2012/02/11
!!!END:	2012/02/11/
!!!EED:	Jesse Rodin
!!!EEV:	2012/08/29/
!!attribution-level@Jos: 4 (questionable)
!!!ONB:	Translated from MusicXML and edited on 2012/08/29/ by Craig Sapp
!!muse2ps: T^@{OPR}^u^@{ONM}{. }@{OTL}^C^@{COA}?\n@{SCT}^i2I150v85,85,85,150Q8c110
